static/img/kroki/1f979f449446aadea6757ed9d8f2a28d.svg

<?xml version="1.0" encoding="us-ascii" standalone="no"?><svg xmlns="http://www.w3.org/2000/svg" xmlns:xlink="http://www.w3.org/1999/xlink" contentStyleType="text/css" height="1004px" preserveAspectRatio="none" style="width:433px;height:1004px;" version="1.1" viewBox="0 0 433 1004" width="433px" zoomAndPan="magnify"><defs/><g><!--class aws_bedrock_provisioned_model_throughput--><g id="elem_aws_bedrock_provisioned_model_throughput"><rect codeLine="23" fill="#3D176E" height="363.3516" id="aws_bedrock_provisioned_model_throughput" rx="2.5" ry="2.5" style="stroke:#000D19;stroke-width:0.5;" width="419" x="7" y="633.85"/><ellipse cx="22" cy="653.7445" fill="#ADD1B2" rx="11" ry="11" style="stroke:#181818;stroke-width:1.0;"/><path d="M24.9688,659.3852 Q24.3906,659.682 23.75,659.8227 Q23.1094,659.9789 22.4063,659.9789 Q19.9063,659.9789 18.5781,658.3383 Q17.2656,656.682 17.2656,653.557 Q17.2656,650.432 18.5781,648.7758 Q19.9063,647.1195 22.4063,647.1195 Q23.1094,647.1195 23.75,647.2758 Q24.4063,647.432 24.9688,647.7289 L24.9688,650.4477 Q24.3438,649.8695 23.75,649.6039 Q23.1563,649.3227 22.5313,649.3227 Q21.1875,649.3227 20.5,650.4008 Q19.8125,651.4633 19.8125,653.557 Q19.8125,655.6508 20.5,656.7289 Q21.1875,657.7914 22.5313,657.7914 Q23.1563,657.7914 23.75,657.5258 Q24.3438,657.2445 24.9688,656.6664 L24.9688,659.3852 Z " fill="#000000"/><text fill="#D9B8FF" font-family="Helvetica" font-size="17" lengthAdjust="spacing" textLength="377" x="41" y="659.6298">aws_bedrock_provisioned_model_throughput</text><line style="stroke:#000D19;stroke-width:0.5;" x1="8" x2="425" y1="673.6391" y2="673.6391"/><text fill="#D9B8FF" font-family="sans-serif" font-size="14" font-weight="bold" lengthAdjust="spacing" textLength="170" x="18" y="695.6342">commitment_duration</text><text fill="#D9B8FF" font-family="sans-serif" font-size="14" lengthAdjust="spacing" textLength="48" x="188" y="695.6342">: string</text><text fill="#D9B8FF" font-family="sans-serif" font-size="14" font-weight="bold" lengthAdjust="spacing" textLength="224" x="18" y="721.9311">commitment_expiration_time</text><text fill="#D9B8FF" font-family="sans-serif" font-size="14" lengthAdjust="spacing" textLength="70" x="242" y="721.9311">: datetime</text><text fill="#D9B8FF" font-family="sans-serif" font-size="14" font-weight="bold" lengthAdjust="spacing" textLength="106" x="18" y="748.2279">creation_time</text><text fill="#D9B8FF" font-family="sans-serif" font-size="14" lengthAdjust="spacing" textLength="70" x="124" y="748.2279">: datetime</text><text fill="#D9B8FF" font-family="sans-serif" font-size="14" font-weight="bold" lengthAdjust="spacing" textLength="148" x="18" y="774.5248">desired_model_arn</text><text fill="#D9B8FF" font-family="sans-serif" font-size="14" lengthAdjust="spacing" textLength="48" x="166" y="774.5248">: string</text><text fill="#D9B8FF" font-family="sans-serif" font-size="14" font-weight="bold" lengthAdjust="spacing" textLength="161" x="18" y="800.8217">desired_model_units</text><text fill="#D9B8FF" font-family="sans-serif" font-size="14" lengthAdjust="spacing" textLength="44" x="179" y="800.8217">: int64</text><text fill="#D9B8FF" font-family="sans-serif" font-size="14" font-weight="bold" lengthAdjust="spacing" textLength="173" x="18" y="827.1186">foundation_model_arn</text><text fill="#D9B8FF" font-family="sans-serif" font-size="14" lengthAdjust="spacing" textLength="48" x="191" y="827.1186">: string</text><text fill="#D9B8FF" font-family="sans-serif" font-size="14" font-weight="bold" lengthAdjust="spacing" textLength="144" x="18" y="853.4154">last_modified_time</text><text fill="#D9B8FF" font-family="sans-serif" font-size="14" lengthAdjust="spacing" textLength="70" x="162" y="853.4154">: datetime</text><text fill="#D9B8FF" font-family="sans-serif" font-size="14" font-weight="bold" lengthAdjust="spacing" textLength="81" x="18" y="879.7123">model_arn</text><text fill="#D9B8FF" font-family="sans-serif" font-size="14" lengthAdjust="spacing" textLength="48" x="99" y="879.7123">: string</text><text fill="#D9B8FF" font-family="sans-serif" font-size="14" font-weight="bold" lengthAdjust="spacing" textLength="94" x="18" y="906.0092">model_units</text><text fill="#D9B8FF" font-family="sans-serif" font-size="14" lengthAdjust="spacing" textLength="44" x="112" y="906.0092">: int64</text><text fill="#D9B8FF" font-family="sans-serif" font-size="14" font-weight="bold" lengthAdjust="spacing" textLength="181" x="18" y="932.3061">provisioned_model_arn</text><text fill="#D9B8FF" font-family="sans-serif" font-size="14" lengthAdjust="spacing" textLength="48" x="199" y="932.3061">: string</text><text fill="#D9B8FF" font-family="sans-serif" font-size="14" font-weight="bold" lengthAdjust="spacing" textLength="198" x="18" y="958.6029">provisioned_model_name</text><text fill="#D9B8FF" font-family="sans-serif" font-size="14" lengthAdjust="spacing" textLength="48" x="216" y="958.6029">: string</text><text fill="#D9B8FF" font-family="sans-serif" font-size="14" font-weight="bold" lengthAdjust="spacing" textLength="49" x="18" y="984.8998">status</text><text fill="#D9B8FF" font-family="sans-serif" font-size="14" lengthAdjust="spacing" textLength="48" x="67" y="984.8998">: string</text></g><!--class aws_resource--><g id="elem_aws_resource"><rect codeLine="37" fill="#3D176E" height="74.0859" id="aws_resource" rx="2.5" ry="2.5" style="stroke:#000D19;stroke-width:0.5;" width="155" x="139" y="438.76"/><ellipse cx="154" cy="458.6545" fill="#ADD1B2" rx="11" ry="11" style="stroke:#181818;stroke-width:1.0;"/><path d="M156.9688,464.2952 Q156.3906,464.592 155.75,464.7327 Q155.1094,464.8889 154.4063,464.8889 Q151.9063,464.8889 150.5781,463.2483 Q149.2656,461.592 149.2656,458.467 Q149.2656,455.342 150.5781,453.6858 Q151.9063,452.0295 154.4063,452.0295 Q155.1094,452.0295 155.75,452.1858 Q156.4063,452.342 156.9688,452.6389 L156.9688,455.3577 Q156.3438,454.7795 155.75,454.5139 Q155.1563,454.2327 154.5313,454.2327 Q153.1875,454.2327 152.5,455.3108 Q151.8125,456.3733 151.8125,458.467 Q151.8125,460.5608 152.5,461.6389 Q153.1875,462.7014 154.5313,462.7014 Q155.1563,462.7014 155.75,462.4358 Q156.3438,462.1545 156.9688,461.5764 L156.9688,464.2952 Z " fill="#000000"/><text fill="#D9B8FF" font-family="Helvetica" font-size="17" lengthAdjust="spacing" textLength="113" x="173" y="464.5398">aws_resource</text><line style="stroke:#000D19;stroke-width:0.5;" x1="140" x2="293" y1="478.5491" y2="478.5491"/><text fill="#D9B8FF" font-family="sans-serif" font-size="14" font-weight="bold" lengthAdjust="spacing" textLength="26" x="150" y="500.5442">arn</text><text fill="#D9B8FF" font-family="sans-serif" font-size="14" lengthAdjust="spacing" textLength="48" x="176" y="500.5442">: string</text></g><!--class resource--><g id="elem_resource"><rect codeLine="40" fill="#3D176E" height="310.7578" id="resource" rx="2.5" ry="2.5" style="stroke:#000D19;stroke-width:0.5;" width="227" x="103" y="7"/><ellipse cx="171.75" cy="26.8945" fill="#ADD1B2" rx="11" ry="11" style="stroke:#181818;stroke-width:1.0;"/><path d="M174.7188,32.5352 Q174.1406,32.832 173.5,32.9727 Q172.8594,33.1289 172.1563,33.1289 Q169.6563,33.1289 168.3281,31.4883 Q167.0156,29.832 167.0156,26.707 Q167.0156,23.582 168.3281,21.9258 Q169.6563,20.2695 172.1563,20.2695 Q172.8594,20.2695 173.5,20.4258 Q174.1563,20.582 174.7188,20.8789 L174.7188,23.5977 Q174.0938,23.0195 173.5,22.7539 Q172.9063,22.4727 172.2813,22.4727 Q170.9375,22.4727 170.25,23.5508 Q169.5625,24.6133 169.5625,26.707 Q169.5625,28.8008 170.25,29.8789 Q170.9375,30.9414 172.2813,30.9414 Q172.9063,30.9414 173.5,30.6758 Q174.0938,30.3945 174.7188,29.8164 L174.7188,32.5352 Z " fill="#000000"/><text fill="#D9B8FF" font-family="Helvetica" font-size="17" lengthAdjust="spacing" textLength="71" x="197.25" y="32.7798">resource</text><line style="stroke:#000D19;stroke-width:0.5;" x1="104" x2="329" y1="46.7891" y2="46.7891"/><text fill="#D9B8FF" font-family="sans-serif" font-size="14" font-weight="bold" lengthAdjust="spacing" textLength="29" x="114" y="68.7842">age</text><text fill="#D9B8FF" font-family="sans-serif" font-size="14" lengthAdjust="spacing" textLength="66" x="143" y="68.7842">: duration</text><text fill="#D9B8FF" font-family="sans-serif" font-size="14" font-weight="bold" lengthAdjust="spacing" textLength="43" x="114" y="95.0811">atime</text><text fill="#D9B8FF" font-family="sans-serif" font-size="14" lengthAdjust="spacing" textLength="70" x="157" y="95.0811">: datetime</text><text fill="#D9B8FF" font-family="sans-serif" font-size="14" font-weight="bold" lengthAdjust="spacing" textLength="43" x="114" y="121.3779">ctime</text><text fill="#D9B8FF" font-family="sans-serif" font-size="14" lengthAdjust="spacing" textLength="70" x="157" y="121.3779">: datetime</text><text fill="#D9B8FF" font-family="sans-serif" font-size="14" font-weight="bold" lengthAdjust="spacing" textLength="14" x="114" y="147.6748">id</text><text fill="#D9B8FF" font-family="sans-serif" font-size="14" lengthAdjust="spacing" textLength="48" x="128" y="147.6748">: string</text><text fill="#D9B8FF" font-family="sans-serif" font-size="14" font-weight="bold" lengthAdjust="spacing" textLength="33" x="114" y="173.9717">kind</text><text fill="#D9B8FF" font-family="sans-serif" font-size="14" lengthAdjust="spacing" textLength="48" x="147" y="173.9717">: string</text><text fill="#D9B8FF" font-family="sans-serif" font-size="14" font-weight="bold" lengthAdjust="spacing" textLength="90" x="114" y="200.2686">last_access</text><text fill="#D9B8FF" font-family="sans-serif" font-size="14" lengthAdjust="spacing" textLength="66" x="204" y="200.2686">: duration</text><text fill="#D9B8FF" font-family="sans-serif" font-size="14" font-weight="bold" lengthAdjust="spacing" textLength="90" x="114" y="226.5654">last_update</text><text fill="#D9B8FF" font-family="sans-serif" font-size="14" lengthAdjust="spacing" textLength="66" x="204" y="226.5654">: duration</text><text fill="#D9B8FF" font-family="sans-serif" font-size="14" font-weight="bold" lengthAdjust="spacing" textLength="48" x="114" y="252.8623">mtime</text><text fill="#D9B8FF" font-family="sans-serif" font-size="14" lengthAdjust="spacing" textLength="70" x="162" y="252.8623">: datetime</text><text fill="#D9B8FF" font-family="sans-serif" font-size="14" font-weight="bold" lengthAdjust="spacing" textLength="43" x="114" y="279.1592">name</text><text fill="#D9B8FF" font-family="sans-serif" font-size="14" lengthAdjust="spacing" textLength="48" x="157" y="279.1592">: string</text><text fill="#D9B8FF" font-family="sans-serif" font-size="14" font-weight="bold" lengthAdjust="spacing" textLength="34" x="114" y="305.4561">tags</text><text fill="#D9B8FF" font-family="sans-serif" font-size="14" lengthAdjust="spacing" textLength="171" x="148" y="305.4561">: dictionary[string, string]</text></g><!--reverse link aws_resource to aws_bedrock_provisioned_model_throughput--><g id="link_aws_resource_aws_bedrock_provisioned_model_throughput"><path codeLine="52" d="M216.5,531.27 C216.5,561.12 216.5,587.75 216.5,633.59 " fill="none" id="aws_resource-backto-aws_bedrock_provisioned_model_throughput" style="stroke:#FFAF37;stroke-width:2.0;"/><polygon fill="none" points="216.5,513.27,210.5,531.27,222.5,531.27,216.5,513.27" style="stroke:#FFAF37;stroke-width:2.0;"/></g><!--reverse link resource to aws_resource--><g id="link_resource_aws_resource"><path codeLine="53" d="M216.5,336.18 C216.5,381.21 216.5,408.35 216.5,438.52 " fill="none" id="resource-backto-aws_resource" style="stroke:#FFAF37;stroke-width:2.0;"/><polygon fill="none" points="216.5,318.18,210.5,336.18,222.5,336.18,216.5,318.18" style="stroke:#FFAF37;stroke-width:2.0;"/></g><!--SRC=[ZPHDRzim38Rl_XK2UWiQ86ctfXbswG8CwwKOsjs6mM0asXPYIGP5Dyq-_lkaE0dybRQtWEz3lYzf8OLMAD1Kl1C6pHh99twZRGK4HjmHkUtAbOx4HPP1ThteYr-TvJU11p0elc7vZAmbz8aVXPORYzwBgvRq1UGc9rTRrOnd0kk3X9PRrAe4x- -OIQzhnbOOjLpVPbcVx0-zk5RpnGqEC4SAwO3CPZCrN_QHDwrUtVj4FEdVAERjepquna7CWSMUUZLb95eX1uiUzRCPluDIskRYOwlss6GYYzIfFnMWt3RI6PI-RUCP2HtlAbmDjiBbhSeMe_3zEJYHyNG2jZvTeo8dDsb5xbbxxIogr3Y5PSf5wCoBgcRn9vbCf3D6imal9rKr0GTqClaKt2WaxkhuKkc6I5aRZ9W2nlWxWeHdDOLUqoa1KDUYgzPMiu-wjdpp8SXPNBGPFTuVbkOewKo7AIFsusrdx8ONwpSE2GkDvmdn35pxLkbVwziGUbUJnFtzkyEFM1V9cuKEdoTMnku_KjEgaogy9JMy74WP_bzw3dkbhkAidc96V0RxC-JDH2rZ6z3kPwDT7fXVOTNEBJx_dKwdxtwwoKZViPJy1m00]--></g></svg>

<svg xmlns="http://www.w3.org/2000/svg" width="433" height="1004" viewBox="0 0 433 1004"><rect width="419" height="363.352" x="7" y="633.85" fill="#3D176E" rx="2.5" ry="2.5" style="stroke:#000d19;stroke-width:.5"/><circle cx="22" cy="653.745" r="11" fill="#ADD1B2" style="stroke:#181818;stroke-width:1"/><path d="M24.969 659.385q-.578.297-1.219.438-.64.156-1.344.156-2.5 0-3.828-1.64-1.312-1.657-1.312-4.782t1.312-4.781q1.328-1.656 3.828-1.656.703 0 1.344.156.656.156 1.219.453v2.719q-.625-.578-1.219-.844-.594-.281-1.219-.281-1.343 0-2.031 1.078-.687 1.062-.687 3.156t.687 3.172q.688 1.062 2.031 1.062.625 0 1.219-.265.594-.281 1.219-.86z"/><text x="41" y="659.63" fill="#D9B8FF" font-family="Helvetica" font-size="17" textLength="377">aws_bedrock_provisioned_model_throughput</text><path d="M8 673.639h417" style="stroke:#000d19;stroke-width:.5"/><text x="18" y="695.634" fill="#D9B8FF" font-family="sans-serif" font-size="14" font-weight="bold" textLength="170">commitment_duration</text><text x="188" y="695.634" fill="#D9B8FF" font-family="sans-serif" font-size="14" textLength="48">: string</text><text x="18" y="721.931" fill="#D9B8FF" font-family="sans-serif" font-size="14" font-weight="bold" textLength="224">commitment_expiration_time</text><text x="242" y="721.931" fill="#D9B8FF" font-family="sans-serif" font-size="14" textLength="70">: datetime</text><text x="18" y="748.228" fill="#D9B8FF" font-family="sans-serif" font-size="14" font-weight="bold" textLength="106">creation_time</text><text x="124" y="748.228" fill="#D9B8FF" font-family="sans-serif" font-size="14" textLength="70">: datetime</text><text x="18" y="774.525" fill="#D9B8FF" font-family="sans-serif" font-size="14" font-weight="bold" textLength="148">desired_model_arn</text><text x="166" y="774.525" fill="#D9B8FF" font-family="sans-serif" font-size="14" textLength="48">: string</text><text x="18" y="800.822" fill="#D9B8FF" font-family="sans-serif" font-size="14" font-weight="bold" textLength="161">desired_model_units</text><text x="179" y="800.822" fill="#D9B8FF" font-family="sans-serif" font-size="14" textLength="44">: int64</text><text x="18" y="827.119" fill="#D9B8FF" font-family="sans-serif" font-size="14" font-weight="bold" textLength="173">foundation_model_arn</text><text x="191" y="827.119" fill="#D9B8FF" font-family="sans-serif" font-size="14" textLength="48">: string</text><text x="18" y="853.415" fill="#D9B8FF" font-family="sans-serif" font-size="14" font-weight="bold" textLength="144">last_modified_time</text><text x="162" y="853.415" fill="#D9B8FF" font-family="sans-serif" font-size="14" textLength="70">: datetime</text><text x="18" y="879.712" fill="#D9B8FF" font-family="sans-serif" font-size="14" font-weight="bold" textLength="81">model_arn</text><text x="99" y="879.712" fill="#D9B8FF" font-family="sans-serif" font-size="14" textLength="48">: string</text><text x="18" y="906.009" fill="#D9B8FF" font-family="sans-serif" font-size="14" font-weight="bold" textLength="94">model_units</text><text x="112" y="906.009" fill="#D9B8FF" font-family="sans-serif" font-size="14" textLength="44">: int64</text><text x="18" y="932.306" fill="#D9B8FF" font-family="sans-serif" font-size="14" font-weight="bold" textLength="181">provisioned_model_arn</text><text x="199" y="932.306" fill="#D9B8FF" font-family="sans-serif" font-size="14" textLength="48">: string</text><text x="18" y="958.603" fill="#D9B8FF" font-family="sans-serif" font-size="14" font-weight="bold" textLength="198">provisioned_model_name</text><text x="216" y="958.603" fill="#D9B8FF" font-family="sans-serif" font-size="14" textLength="48">: string</text><text x="18" y="984.9" fill="#D9B8FF" font-family="sans-serif" font-size="14" font-weight="bold" textLength="49">status</text><text x="67" y="984.9" fill="#D9B8FF" font-family="sans-serif" font-size="14" textLength="48">: string</text><rect width="155" height="74.086" x="139" y="438.76" fill="#3D176E" rx="2.5" ry="2.5" style="stroke:#000d19;stroke-width:.5"/><circle cx="154" cy="458.654" r="11" fill="#ADD1B2" style="stroke:#181818;stroke-width:1"/><path d="M156.969 464.295q-.578.297-1.219.438-.64.156-1.344.156-2.5 0-3.828-1.64-1.312-1.657-1.312-4.782t1.312-4.781q1.328-1.656 3.828-1.656.703 0 1.344.156.656.156 1.219.453v2.719q-.625-.579-1.219-.844-.594-.281-1.219-.281-1.344 0-2.031 1.078-.687 1.062-.687 3.156t.687 3.172q.688 1.062 2.031 1.062.625 0 1.219-.265.594-.281 1.219-.86z"/><text x="173" y="464.54" fill="#D9B8FF" font-family="Helvetica" font-size="17" textLength="113">aws_resource</text><path d="M140 478.549h153" style="stroke:#000d19;stroke-width:.5"/><text x="150" y="500.544" fill="#D9B8FF" font-family="sans-serif" font-size="14" font-weight="bold" textLength="26">arn</text><text x="176" y="500.544" fill="#D9B8FF" font-family="sans-serif" font-size="14" textLength="48">: string</text><rect width="227" height="310.758" x="103" y="7" fill="#3D176E" rx="2.5" ry="2.5" style="stroke:#000d19;stroke-width:.5"/><circle cx="171.75" cy="26.895" r="11" fill="#ADD1B2" style="stroke:#181818;stroke-width:1"/><path d="M174.719 32.535q-.578.297-1.219.438-.64.156-1.344.156-2.5 0-3.828-1.64-1.312-1.657-1.312-4.782t1.312-4.781q1.328-1.656 3.828-1.656.703 0 1.344.156.656.156 1.219.453v2.719q-.625-.578-1.219-.844-.594-.281-1.219-.281-1.344 0-2.031 1.078-.687 1.062-.687 3.156t.687 3.172q.688 1.062 2.031 1.062.625 0 1.219-.265.594-.281 1.219-.86z"/><text x="197.25" y="32.78" fill="#D9B8FF" font-family="Helvetica" font-size="17" textLength="71">resource</text><path d="M104 46.789h225" style="stroke:#000d19;stroke-width:.5"/><text x="114" y="68.784" fill="#D9B8FF" font-family="sans-serif" font-size="14" font-weight="bold" textLength="29">age</text><text x="143" y="68.784" fill="#D9B8FF" font-family="sans-serif" font-size="14" textLength="66">: duration</text><text x="114" y="95.081" fill="#D9B8FF" font-family="sans-serif" font-size="14" font-weight="bold" textLength="43">atime</text><text x="157" y="95.081" fill="#D9B8FF" font-family="sans-serif" font-size="14" textLength="70">: datetime</text><text x="114" y="121.378" fill="#D9B8FF" font-family="sans-serif" font-size="14" font-weight="bold" textLength="43">ctime</text><text x="157" y="121.378" fill="#D9B8FF" font-family="sans-serif" font-size="14" textLength="70">: datetime</text><text x="114" y="147.675" fill="#D9B8FF" font-family="sans-serif" font-size="14" font-weight="bold" textLength="14">id</text><text x="128" y="147.675" fill="#D9B8FF" font-family="sans-serif" font-size="14" textLength="48">: string</text><text x="114" y="173.972" fill="#D9B8FF" font-family="sans-serif" font-size="14" font-weight="bold" textLength="33">kind</text><text x="147" y="173.972" fill="#D9B8FF" font-family="sans-serif" font-size="14" textLength="48">: string</text><text x="114" y="200.269" fill="#D9B8FF" font-family="sans-serif" font-size="14" font-weight="bold" textLength="90">last_access</text><text x="204" y="200.269" fill="#D9B8FF" font-family="sans-serif" font-size="14" textLength="66">: duration</text><text x="114" y="226.565" fill="#D9B8FF" font-family="sans-serif" font-size="14" font-weight="bold" textLength="90">last_update</text><text x="204" y="226.565" fill="#D9B8FF" font-family="sans-serif" font-size="14" textLength="66">: duration</text><text x="114" y="252.862" fill="#D9B8FF" font-family="sans-serif" font-size="14" font-weight="bold" textLength="48">mtime</text><text x="162" y="252.862" fill="#D9B8FF" font-family="sans-serif" font-size="14" textLength="70">: datetime</text><text x="114" y="279.159" fill="#D9B8FF" font-family="sans-serif" font-size="14" font-weight="bold" textLength="43">name</text><text x="157" y="279.159" fill="#D9B8FF" font-family="sans-serif" font-size="14" textLength="48">: string</text><text x="114" y="305.456" fill="#D9B8FF" font-family="sans-serif" font-size="14" font-weight="bold" textLength="34">tags</text><text x="148" y="305.456" fill="#D9B8FF" font-family="sans-serif" font-size="14" textLength="171">: dictionary[string, string]</text><path fill="none" d="M216.5 531.27v102.32m0-120.32-6 18h12zm0-177.09v102.34m0-120.34-6 18h12z" style="stroke:#ffaf37;stroke-width:2"/></svg>
